svgs/tumblr.svg

<svg xmlns="http://www.w3.org/2000/svg" viewBox="0 0 192 192"><path d="M140 176h-25.981c-23.37 0-40.786-12.382-40.786-41.996v-47.43H52V60.887C75.366 54.644 85.142 33.937 86.266 16h24.262v40.725h28.315v29.849h-28.31v41.3c0 12.377 6.067 16.657 15.726 16.657h13.707Z"/></svg>

<svg
    xmlns="http://www.w3.org/2000/svg"
    viewBox="0 0 192 192"
    id="vector">
    <path
        id="path"
        d="M 140 176 L 114.019 176 C 90.649 176 73.233 163.618 73.233 134.004 L 73.233 86.574 L 52 86.574 L 52 60.887 C 75.366 54.644 85.142 33.937 86.266 16 L 110.528 16 L 110.528 56.725 L 138.843 56.725 L 138.843 86.574 L 110.533 86.574 L 110.533 127.874 C 110.533 140.251 116.6 144.531 126.259 144.531 L 139.966 144.531 Z"
        fill="#000000"
        stroke-width="12"/>
</svg>
